SVG_Azure_Grouped/AI/Power BI Embedded.svg

<?xml version="1.0" encoding="UTF-8" standalone="no"?>
<!-- Generated by Microsoft Visio, SVG Export Power BI Embedded.svg Page-1 -->

<svg
   xmlns:dc="http://purl.org/dc/elements/1.1/"
   xmlns:cc="http://creativecommons.org/ns#"
   xmlns:rdf="http://www.w3.org/1999/02/22-rdf-syntax-ns#"
   xmlns:svg="http://www.w3.org/2000/svg"
   xmlns="http://www.w3.org/2000/svg"
   xmlns:sodipodi="http://sodipodi.sourceforge.net/DTD/sodipodi-0.dtd"
   xmlns:inkscape="http://www.inkscape.org/namespaces/inkscape"
   width="0.62713701in"
   height="0.78634059in"
   viewBox="0 0 45.153802 56.616394"
   xml:space="preserve"
   class="st4"
   version="1.1"
   id="svg45"
   sodipodi:docname="Power BI Embedded.svg"
   style="font-size:12px;overflow:visible;color-interpolation-filters:sRGB;fill:none;fill-rule:evenodd;stroke-linecap:square;stroke-miterlimit:3"
   inkscape:version="0.92.5 (2060ec1f9f, 2020-04-08)"><metadata
   id="metadata49"><rdf:RDF><cc:Work
       rdf:about=""><dc:format>image/svg+xml</dc:format><dc:type
         rdf:resource="http://purl.org/dc/dcmitype/StillImage" /></cc:Work></rdf:RDF></metadata><sodipodi:namedview
   pagecolor="#ffffff"
   bordercolor="#666666"
   borderopacity="1"
   objecttolerance="10"
   gridtolerance="10"
   guidetolerance="10"
   inkscape:pageopacity="0"
   inkscape:pageshadow="2"
   inkscape:window-width="640"
   inkscape:window-height="480"
   id="namedview47"
   showgrid="false"
   inkscape:zoom="1.7964232"
   inkscape:cx="31.639961"
   inkscape:cy="20.333139"
   inkscape:window-x="0"
   inkscape:window-y="0"
   inkscape:window-maximized="0"
   inkscape:current-layer="svg45" />
	<style
   type="text/css"
   id="style2">
	<![CDATA[
		.st1 {fill:url(#grad0-6);stroke:none;stroke-linecap:butt;stroke-width:7.89395}
		.st2 {fill:url(#grad0-10);stroke:none;stroke-linecap:butt;stroke-width:6.83093}
		.st3 {fill:url(#grad0-14);stroke:none;stroke-linecap:butt;stroke-width:5.59174}
		.st4 {fill:none;fill-rule:evenodd;font-size:12px;overflow:visible;stroke-linecap:square;stroke-miterlimit:3}
	]]>
	</style>

	<defs
   id="Patterns_And_Gradients">
		<linearGradient
   id="grad0-6"
   x1="0"
   y1="24.832326"
   x2="33.353859"
   y2="24.832326"
   gradientTransform="scale(0.59054283,1.6933573)"
   gradientUnits="userSpaceOnUse">
			<stop
   offset="0"
   stop-color="#e6ad10"
   stop-opacity="1"
   id="stop4" />
			<stop
   offset="1"
   stop-color="#c87e0e"
   stop-opacity="1"
   id="stop6" />
		</linearGradient>
		<linearGradient
   id="grad0-10"
   x1="0"
   y1="38.370428"
   x2="28.864825"
   y2="38.370428"
   gradientTransform="scale(0.68238357,1.4654515)"
   gradientUnits="userSpaceOnUse">
			<stop
   offset="0"
   stop-color="#f6d751"
   stop-opacity="1"
   id="stop9" />
			<stop
   offset="1"
   stop-color="#e6ad10"
   stop-opacity="1"
   id="stop11" />
		</linearGradient>
		<linearGradient
   id="grad0-14"
   x1="0"
   y1="58.515924"
   x2="23.626461"
   y2="58.515924"
   gradientTransform="scale(0.83367893,1.1995026)"
   gradientUnits="userSpaceOnUse">
			<stop
   offset="0"
   stop-color="#f9e589"
   stop-opacity="1"
   id="stop14" />
			<stop
   offset="1"
   stop-color="#f6d751"
   stop-opacity="1"
   id="stop16" />
		</linearGradient>
	</defs>
	<g
   id="g43"
   transform="translate(-5.59166,-7.897879)">
		<title
   id="title20">Page-1</title>
		<g
   id="group18335-1"
   transform="translate(5.59166,-34.0157)">
			<title
   id="title22">Power BI Embedded.18335</title>
			<g
   id="group18336-2">
				<title
   id="title24">layer1</title>
				<g
   id="shape18337-3"
   transform="translate(25.4569,-0.136421)">
					<title
   id="title26">path2-9-0-3-4</title>
					<path
   d="m 19.68,42.83 -0.03,51.91 c 0,0 0.08,3.74 -1.84,3.69 l -15.97,0.1 c 0,0 -1.8,-0.47 -1.78,-3.25 L 0,45.83 c 0,0 0,-3.77 1.75,-3.78 L 18,42.07 c 1.9,-0.1 1.69,3.32 1.69,3.32 z"
   class="st1"
   id="path28"
   inkscape:connector-curvature="0"
   style="fill:url(#grad0-6);stroke:none;stroke-width:7.89394999;stroke-linecap:butt" />
				</g>
				<g
   id="shape18338-7"
   transform="translate(12.5964,-0.0743802)">
					<title
   id="title31">path2-9-0-3</title>
					<path
   d="m 19.68,56.82 -0.03,38.87 c 0,0 0.08,2.8 -1.84,2.76 L 1.84,98.53 c 0,0 -1.8,-0.35 -1.78,-2.43 L 0,59.06 c 0,0 0,-2.82 1.75,-2.83 L 18,56.25 c 1.9,-0.07 1.69,2.49 1.69,2.49 z"
   class="st2"
   id="path33"
   inkscape:connector-curvature="0"
   style="fill:url(#grad0-10);stroke:none;stroke-width:6.83093023;stroke-linecap:butt" />
				</g>
				<g
   id="shape18339-11">
					<title
   id="title36">path2-9-0</title>
					<path
   d="m 19.68,70.58 -0.03,26.05 c 0,0 0.08,1.87 -1.84,1.85 L 1.84,98.53 c 0,0 -1.8,-0.24 -1.78,-1.63 L 0,72.08 c 0,0 0,-1.89 1.75,-1.89 L 18,70.2 c 1.9,-0.05 1.69,1.67 1.69,1.67 z"
   class="st3"
   id="path38"
   inkscape:connector-curvature="0"
   style="fill:url(#grad0-14);stroke:none;stroke-width:5.59174013;stroke-linecap:butt" />
				</g>
			</g>
		</g>
	</g>
</svg>

<?xml version="1.0" encoding="UTF-8" standalone="no"?>
<!DOCTYPE svg PUBLIC "-//W3C//DTD SVG 1.1//EN" "http://www.w3.org/Graphics/SVG/1.1/DTD/svg11.dtd">
<!-- Generated by Microsoft Visio, SVG Export Power BI Embedded.svg Page-1 -->
<svg xmlns="http://www.w3.org/2000/svg" xmlns:xlink="http://www.w3.org/1999/xlink" xmlns:ev="http://www.w3.org/2001/xml-events"
		width="0.81449in" height="1.36846in" viewBox="0 0 58.6432 98.5289" xml:space="preserve" color-interpolation-filters="sRGB"
		class="st4">
	<style type="text/css">
	<![CDATA[
		.st1 {fill:url(#grad0-6);stroke:none;stroke-linecap:butt;stroke-width:7.89395}
		.st2 {fill:url(#grad0-10);stroke:none;stroke-linecap:butt;stroke-width:6.83093}
		.st3 {fill:url(#grad0-14);stroke:none;stroke-linecap:butt;stroke-width:5.59174}
		.st4 {fill:none;fill-rule:evenodd;font-size:12px;overflow:visible;stroke-linecap:square;stroke-miterlimit:3}
	]]>
	</style>

	<defs id="Patterns_And_Gradients">
		<linearGradient id="grad0-6" x1="0" y1="0" x2="1" y2="0" gradientTransform="rotate(35.565367341486 0.5 0.5)">
			<stop offset="0" stop-color="#e6ad10" stop-opacity="1"/>
			<stop offset="1" stop-color="#c87e0e" stop-opacity="1"/>
		</linearGradient>
		<linearGradient id="grad0-10" x1="0" y1="0" x2="1" y2="0" gradientTransform="rotate(35.565367169242 0.5 0.5)">
			<stop offset="0" stop-color="#f6d751" stop-opacity="1"/>
			<stop offset="1" stop-color="#e6ad10" stop-opacity="1"/>
		</linearGradient>
		<linearGradient id="grad0-14" x1="0" y1="0" x2="1" y2="0" gradientTransform="rotate(35.565366282674 0.5 0.5)">
			<stop offset="0" stop-color="#f9e589" stop-opacity="1"/>
			<stop offset="1" stop-color="#f6d751" stop-opacity="1"/>
		</linearGradient>
	</defs>
	<g>
		<title>Page-1</title>
		<g id="group17905-1" transform="translate(5.59166,-34.0157)">
			<title>Power BI Embedded.17905</title>
			<g id="group17906-2">
				<title>layer1</title>
				<g id="shape17907-3" transform="translate(25.4569,-0.136421)">
					<title>path2-9-0-3-4</title>
					<path d="M19.68 42.83 L19.65 94.74 C19.65 94.74 19.73 98.48 17.81 98.43 L1.84 98.53 C1.84 98.53 0.04 98.06 0.06
								 95.28 L0 45.83 C0 45.83 0 42.06 1.75 42.05 L18 42.07 C19.9 41.97 19.69 45.39 19.69 45.39 L19.68
								 42.83 Z" class="st1"/>
				</g>
				<g id="shape17908-7" transform="translate(12.5964,-0.0743802)">
					<title>path2-9-0-3</title>
					<path d="M19.68 56.82 L19.65 95.69 C19.65 95.69 19.73 98.49 17.81 98.45 L1.84 98.53 C1.84 98.53 0.04 98.18 0.06
								 96.1 L0 59.06 C0 59.06 0 56.24 1.75 56.23 L18 56.25 C19.9 56.18 19.69 58.74 19.69 58.74 L19.68 56.82
								 Z" class="st2"/>
				</g>
				<g id="shape17909-11">
					<title>path2-9-0</title>
					<path d="M19.68 70.58 L19.65 96.63 C19.65 96.63 19.73 98.5 17.81 98.48 L1.84 98.53 C1.84 98.53 0.04 98.29 0.06
								 96.9 L0 72.08 C0 72.08 0 70.19 1.75 70.19 L18 70.2 C19.9 70.15 19.69 71.87 19.69 71.87 L19.68 70.58
								 Z" class="st3"/>
				</g>
			</g>
		</g>
	</g>
</svg>
